X:324
T: VALET ZUM THOR HINAUS
N: E0183
O: Europa, Mitteleuropa, Deutschland, Schlesien
R: erzaehlendes Volks - Lied, Sage, Familien - Geschichte
M: 2/4
L: 1/16
K: G
D2 | G2G2G2A2 | B4A4 | G4z2
G2 | F2G2A2B2 | c2B2d2B2 | A4z2
A2 | B2A2B2c2 | d3ed2
d2 | c2B2A2B2 | c3dc2
c2 | B2A2G2dc | B4A4 | G4z2

@@@ Tune index: 3974
